usr/share/icons/biglinux-icons-material-dark/symbolic/actions/node-type-symmetric.svg

<svg xmlns="http://www.w3.org/2000/svg" viewBox="0 0 16 16">
  <defs id="defs3051">
    <style type="text/css" id="current-color-scheme">
      .ColorScheme-Text {
        color:#dedede;
      }
      .ColorScheme-Highlight {
        color:#3daee9;
      }
      </style>
  </defs>
  <path 
        style="fill:currentColor;fill-opacity:1;stroke:none"
        d="M 1.0039062 2 A 7 9 0 0 0 7.0039062 10.898438 L 7.0039062 9.8789062 A 6 8 0 0 1 2.0039062 2 L 1.0039062 2 z M 14.003906 2 A 6 8 0 0 1 9.0039062 9.8867188 L 9.0039062 10.896484 A 7 9 0 0 0 15.003906 2.0019531 L 14.003906 2 z M 2.5039062 10 A 1.5 1.5 0 0 0 1.0039062 11.5 A 1.5 1.5 0 0 0 2.5039062 13 A 1.5 1.5 0 0 0 3.9179688 12 L 5 12 L 5 11 L 3.9179688 11 A 1.5 1.5 0 0 0 2.5039062 10 z M 13.503906 10 A 1.5 1.5 0 0 0 12.091797 11 L 11 11 L 11 12 L 12.091797 12 A 1.5 1.5 0 0 0 13.503906 13 A 1.5 1.5 0 0 0 15.003906 11.5 A 1.5 1.5 0 0 0 13.503906 10 z M 2.5039062 11 A 0.500002 0.5 0 0 1 3 11.441406 L 3 11.5625 A 0.500002 0.5 0 0 1 2.5039062 12 A 0.500002 0.5 0 0 1 2.0039062 11.5 A 0.500002 0.5 0 0 1 2.5039062 11 z M 13.503906 11 A 0.500002 0.5 0 0 1 14.003906 11.5 A 0.500002 0.5 0 0 1 13.503906 12 A 0.500002 0.5 0 0 1 13.003906 11.5 A 0.500002 0.5 0 0 1 13.503906 11 z "
        class="ColorScheme-Text"
        />
  <path
        style="fill:currentColor;fill-opacity:1;stroke:none"
        d="m 8,8 -3,5 6,0 z m 0,2 1,2 -2,0 z"
        class="ColorScheme-Highlight"
      />
</svg>

<svg xmlns="http://www.w3.org/2000/svg" viewBox="0 0 16 16">
<defs id="defs3051">
<style id="current-color-scheme" type="text/css">
.ColorScheme-Contrast{color:#dedede}.ColorScheme-Highlight{color:#3daee9}
</style>
</defs>
<path d="M1.004 2a7 9 0 0 0 6 8.898v-1.02a6 8 0 0 1-5-7.878zm13 0a6 8 0 0 1-5 7.887v1.01a7 9 0 0 0 6-8.895zm-11.5 8a1.5 1.5 0 0 0-1.5 1.5 1.5 1.5 0 0 0 1.5 1.5 1.5 1.5 0 0 0 1.414-1H5v-1H3.918a1.5 1.5 0 0 0-1.414-1m11 0a1.5 1.5 0 0 0-1.412 1H11v1h1.092a1.5 1.5 0 0 0 1.412 1 1.5 1.5 0 0 0 1.5-1.5 1.5 1.5 0 0 0-1.5-1.5m-11 1a.5.5 0 0 1 .496.441v.121a.5.5 0 0 1-.496.438.5.5 0 0 1-.5-.5.5.5 0 0 1 .5-.5m11 0a.5.5 0 0 1 .5.5.5.5 0 0 1-.5.5.5.5 0 0 1-.5-.5.5.5 0 0 1 .5-.5" class="ColorScheme-Contrast" style="fill:currentColor;fill-opacity:1;stroke:none"/>
<path d="m8 8-3 5h6zm0 2 1 2H7z" class="ColorScheme-Highlight" style="fill:currentColor;fill-opacity:1;stroke:none"/>
</svg>
